X: 921
T: Jackson's Rambles.
B:O'Neill's 921
N:"collected by F. O'Neill."
Z:Transcribed by Tom Keays (htkeays@mailbox.syr.edu)
Z:abc 1.6
M:6/8
R:Jig
L:1/8
K:D
(F/E/) | DFA B2A | BdB BAF | DFA dAF | EFE E2F |
DFA B2A | BdB BAF | DFA DAG | FDD D2 :|
g | fed dfa | bge fdB | AFA def | gee e2g |
|1 fed dfa | bge fdB | AFA d2e | fdd d2 :|2 gbg afa |
ege fdB | AFA d2e | fdd d2 |]


